X:1
T:Io son pur sciolto
T:Luca Marenzio
T:Source : Il quinto libro delle Villanelle a tre voci---Valentia---Herede di G.Scotto---1587. Editor : André Vierendeels ( 06/06/17).
T:Notes : Original clefs : G2, C1, F3 Editorial accidentals above the staff Music collected by Attilio Gualtieri
T:Io son pur sciolto
T:©
T:©
C:Luca Marenzio
Z:©
%%score [ 1 2 3 ]
L:1/8
Q:1/4=120
M:4/4
K:C
V:1 treble nm="Soprano 1" snm="S 1"
V:2 treble nm="Soprano 2" snm="S 2"
V:3 treble-8 nm="Tenor" snm="T"
V:1
"^1)" G8 | A4 B2 c2- | c2 d2 e3 e | e2 d2 c4 | B4 z2 B2 | c2 d2 e4- | e2 c2 B4 |1[M:2/4] A4 ::2 %8
w: Io|son pur sciol-|* to'A- mor da|l'em- pio lac-|cio, in|cui pen- san-|* do'ag- giac-|cio,|
w: Ec-|co li- be-|* ro'il cor por-|to vel pet-|to, al|tuo mar- cio|_ dis- pet-|to,|
[M:4/4] A8 || z4 e2 f2 | g4- g2 fe | dcBA GABc | d4 B4 | z2 e2 f2 g2 | e4 e4 | a8- | a4 g4 | %17
w: cio,|e son|for _ d'ogn' in-|tri- * * * * * * *|* co,|non piu tuo|ser- vo|ma|_ cru-|
w: to,|nr piu|por- * to nel|vi- * * * * * * *|* so,|mes- ti- tia'e|pian- to|m'al-|* le-|
 f4 e4 | d8 | c8 :| %20
w: del ne-|mi-|co.-|
w: grez- za'et|ri-|co-|
V:2
"^2)""^1)" E8 | ^F4 G2 A2- | A2 B2 c3 c | c2 d2 e4 | d2 G2 A2 G2 | E6 ^G2 | ^G2 A4 G2 |1 %7
w: Io|son pur sciol-|* to'A- mor da|l'em- pio lac-|cio, in cui pen-|san- do'ag-|giac- * *|
w: Qual'|huom ch'al Mar|_ si die- de'in|pic- ciol le-|gno, sen- za fer-|mo so-|ste- * *|
[M:2/4] A4 ::2[M:4/4] A4 c2 d2 || e6 dc | BAGF EFGA | B3 c dcBA | B4 G4 | z2 G2 d2 d2 | ^c4 c4 | %15
w: cio,|cio, e son|for d'ogn' in-|tri- * * * * * * *||* co,|non piu tuo|ser- vo|
w: gno,|gno, si scor-|ge'il ca- ro|li- * * * * * * *||* do,|in az"al ciel|pien di|
 f8- | f4 e4 | d4 c4 | B2 c4 B2 | c8 :| %20
w: ma|_ cru-|del ne-|mi- * *|co.|
w: let-|* ti-|tia il|gri- * *|do.|
V:3
"^3)""^1)""^4)" c8 |"^-natural" A4 G2 F2- | F2 D2 C3 C | C2 B,2 C4 | G2 E2 F2 G2 | A6 E2 | E8 |1 %7
w: Io|son pur sciol-|* to'A- mor da|l'em- pio lac-|cio, in cui pen-|san- do'ag-|giac-|
w: Tal|io di ser-|* vi- tu d'em-|pio ti- ran-|no, e da sua|cru- da|ma-|
[M:2/4] A,4 ::2[M:4/4] A,4 A2 B2 || c6 BA | GFED CDEF | G8 | G8 | c4 _B2 G2 | A4 A4 | D4 E4 | F8 | %17
w: cio,|cio, e son|for d'ogn' in-|tri- * * * * * * *||co,|non piu ruo|ser- vo|ma cru-|del|
w: no,|no, fuo- ri|di do- glia'e|pian- * * * * * * *||to,|l'a- ma- ta'e|dol- ce|li- ber-|ta-|
 F8 | G8 | C8 :| %20
w: ne-|mi-|co.|
w: de'io|can-|to.|

